dist/img/svg/skype.svg

<svg width="21" height="21" viewBox="0 0 21 21"  xmlns="http://www.w3.org/2000/svg">
<path d="M20.3182 12.0682C20.3864 11.5227 20.4545 11.0455 20.4545 10.5C20.4545 5.04545 16.0227 0.545455 10.5 0.545455C9.95455 0.545455 9.47727 0.613636 8.93182 0.681818C8.04545 0.204545 7.09091 0 6.13636 0C2.72727 0 0 2.72727 0 6.13636C0 7.09091 0.204545 8.04545 0.681818 8.93182C0.613636 9.47727 0.545455 9.95455 0.545455 10.5C0.545455 15.9545 4.97727 20.4545 10.5 20.4545C11.0455 20.4545 11.5227 20.3864 12.0682 20.3182C12.9545 20.7273 13.9091 21 14.8636 21C18.2727 21 21 18.2727 21 14.8636C21 13.9091 20.7273 12.9545 20.3182 12.0682ZM14.6591 14.1136C14.4545 14.5227 14.1818 14.8636 13.7727 15.1364C13.3636 15.4091 12.9545 15.6136 12.4091 15.75C11.8636 15.8864 11.25 15.9545 10.5682 15.9545C9.13636 15.9545 7.97727 15.6136 7.15909 15C6.68182 14.5909 6.27273 14.1136 6.06818 13.5C5.79545 12.9545 6.27273 12.2727 6.95455 12.2727H7.15909C7.56818 12.2727 7.97727 12.5455 8.11364 12.8864C8.25 13.2273 8.45455 13.5 8.72727 13.7045C9.13636 14.0455 9.75 14.1818 10.5 14.1818C11.1818 14.1818 11.7273 14.0455 12.1364 13.8409C12.5455 13.6364 12.75 13.2273 12.75 12.8182C12.75 12.6136 12.6818 12.4773 12.6136 12.3409C12.5455 12.2045 12.3409 12.0682 12.2045 12C12 11.8636 11.7955 11.7955 11.4545 11.7273C11.1818 11.6591 10.8409 11.5227 10.4318 11.4545L10.0227 11.3182C9.54545 11.1818 9 11.0455 8.59091 10.9091C8.11364 10.7727 7.70455 10.5682 7.36364 10.3636C7.02273 10.1591 6.75 9.88636 6.54545 9.47727C6.34091 9.13636 6.27273 8.65909 6.27273 8.11364C6.27273 7.56818 6.40909 7.09091 6.61364 6.68182C6.81818 6.27273 7.15909 5.93182 7.5 5.72727C7.90909 5.45455 8.31818 5.25 8.86364 5.18182C9.34091 5.04545 9.88636 4.97727 10.5 4.97727C11.1818 4.97727 11.7273 5.04545 12.2727 5.18182C12.8182 5.31818 13.2273 5.52273 13.6364 5.86364C14.0455 6.13636 14.3182 6.47727 14.5227 6.95455C14.8636 7.56818 14.3864 8.38636 13.6364 8.38636H13.4318C13.0227 8.38636 12.6818 8.18182 12.4773 7.84091C12.3409 7.63636 12.2045 7.43182 12 7.22727C11.6591 6.95455 11.1136 6.81818 10.5 6.81818C9.88636 6.81818 9.40909 6.95455 9.06818 7.15909C8.72727 7.36364 8.59091 7.70455 8.59091 8.04545C8.59091 8.25 8.65909 8.38636 8.72727 8.52273C8.79545 8.65909 8.93182 8.79545 9.13636 8.86364C9.34091 8.93182 9.54545 9.06818 9.81818 9.13636C10.0909 9.20455 10.4318 9.27273 10.8409 9.40909C11.25 9.47727 11.5909 9.61364 12 9.68182C12.3409 9.75 12.6818 9.88636 13.0227 9.95455C13.3636 10.0909 13.6364 10.2273 13.9091 10.3636C14.1818 10.5 14.3864 10.7045 14.5909 10.9091C14.7955 11.1136 14.9318 11.3864 15 11.6591C15.1364 11.9318 15.1364 12.3409 15.1364 12.75C15 13.2273 14.8636 13.7045 14.6591 14.1136Z" />
</svg>

<svg width="21" height="21" viewBox="0 0 21 21" xmlns="http://www.w3.org/2000/svg"><path d="M20.318 12.068c.068-.545.136-1.022.136-1.568 0-5.455-4.431-9.955-9.954-9.955-.545 0-1.023.069-1.568.137A5.84 5.84 0 006.136 0 6.11 6.11 0 000 6.136c0 .955.205 1.91.682 2.796C.614 9.477.545 9.955.545 10.5c0 5.454 4.432 9.954 9.955 9.954.546 0 1.023-.068 1.568-.136.886.41 1.841.682 2.796.682A6.11 6.11 0 0021 14.864c0-.955-.273-1.91-.682-2.796zm-5.659 2.046a2.55 2.55 0 01-.886 1.022c-.41.273-.819.478-1.364.614a7.603 7.603 0 01-1.84.204c-1.433 0-2.592-.34-3.41-.954-.477-.41-.886-.886-1.09-1.5-.274-.546.204-1.227.886-1.227h.204c.41 0 .818.273.955.613.136.341.34.614.613.819.41.34 1.023.477 1.773.477.682 0 1.227-.136 1.636-.341.41-.205.614-.614.614-1.023 0-.204-.068-.34-.136-.477-.069-.136-.273-.273-.41-.341-.204-.136-.409-.204-.75-.273-.272-.068-.613-.204-1.022-.273l-.41-.136c-.477-.136-1.022-.272-1.431-.409a5.115 5.115 0 01-1.227-.545 2.072 2.072 0 01-.819-.887c-.204-.34-.272-.818-.272-1.363 0-.546.136-1.023.34-1.432.205-.41.546-.75.887-.955.41-.272.818-.477 1.364-.545a5.966 5.966 0 011.636-.205 7.01 7.01 0 011.773.205c.545.136.954.34 1.363.682.41.272.682.613.887 1.09.34.614-.137 1.432-.887 1.432h-.204c-.41 0-.75-.204-.955-.545A3.752 3.752 0 0012 7.227c-.34-.272-.886-.409-1.5-.409s-1.09.137-1.432.341c-.34.205-.477.546-.477.886 0 .205.068.341.136.478a.698.698 0 00.41.34c.204.069.408.205.681.273.273.069.614.137 1.023.273.409.068.75.205 1.159.273.34.068.682.204 1.023.273.34.136.613.272.886.409.273.136.477.34.682.545.205.205.34.477.409.75.136.273.136.682.136 1.091-.136.477-.272.954-.477 1.364z"/></svg>
